X:541
T: Dabuzou kuaikuaizou
N: C1959
O: China, Jiangxi Xinfeng
S: IV, 199]
R: Xiaodiao, Dengge, Ludiao]
M: 1/4
L: 1/16
K: G
B2d2B2Bd | e3de4
d2ABe2d2 | A2BdA4
A2BdedB2 | AGABdBde | GAedB4
ABFAE4 | DEFAE4
d2ABd3e | A2BdA4
ABd2edB2 | AGABdBde | GAedB4
F2FAE4 | DEFAE4 | d4

